small/extra/apps/standard/ooo-base.svg

<?xml version="1.0" encoding="UTF-8" standalone="no"?>
<!-- Created with Inkscape (http://www.inkscape.org/) -->
<svg id="svg2" xmlns:rdf="http://www.w3.org/1999/02/22-rdf-syntax-ns#" xmlns="http://www.w3.org/2000/svg" height="100%" width="100%" version="1.1" xmlns:cc="http://creativecommons.org/ns#" viewBox="0 0 512 512" xmlns:dc="http://purl.org/dc/elements/1.1/">
 <metadata id="metadata74">
  <rdf:RDF>
   <cc:Work rdf:about="">
    <dc:format>image/svg+xml</dc:format>
    <dc:type rdf:resource="http://purl.org/dc/dcmitype/StillImage"/>
   </cc:Work>
  </rdf:RDF>
 </metadata>
 <path id="path16" d="m26 0c-14.397 0-26 11.603-26 26v460c0 14.397 11.603 26 26 26h460c14.397 0 26-11.603 26-26v-460c0-14.397-11.6-26-26-26h-460" fill="#e02b2b"/>
 <path id="path18" d="m26 0c-14.397 0-26 11.603-26 26v460c0 14.397 11.603 26 26 26h173c15.38-73.45 9.77-145.6-13.12-231.06-30.5-113.84-41.37-191.27-12.03-280.94h-147.84" fill="#1f467c"/>
 <text id="text20" style="word-spacing:0;letter-spacing:0" font-size="129.23px" line-height="125%" y="254.17999" x="-161.46001" font-family="Gentium Book Basic">
  <tspan id="tspan22" y="254.17999" x="-161.46001"/>
 </text>
 <text id="text24" style="text-anchor:middle" transform="scale(4.0128 .2492)" font-size="46.954px" y="670.83002" x="156.84" font-family="Arial"/>
 <text id="text26" style="word-spacing:0;letter-spacing:0" font-size="129.23px" line-height="125%" y="174.17999" x="419.81" font-family="Gentium Book Basic">
  <tspan id="tspan28" y="174.17999" x="419.81"/>
 </text>
 <text id="text30" style="text-anchor:middle" transform="scale(4.0128 .2492)" font-size="46.954px" y="349.79999" x="301.69" font-family="Arial"/>
 <text id="text32" style="word-spacing:0;letter-spacing:0" font-size="129.23px" line-height="125%" y="-7.0780001" x="-651.77002" font-family="Gentium Book Basic">
  <tspan id="tspan34" y="-7.0780001" x="-651.77002"/>
 </text>
 <text id="text36" style="text-anchor:middle" transform="scale(4.0128 .2492)" font-size="46.954px" y="-377.54999" x="34.654999" font-family="Arial"/>
 <text id="text38" style="word-spacing:0;letter-spacing:0" font-size="129.23px" line-height="125%" y="-223.55" x="446.28" font-family="Gentium Book Basic">
  <tspan id="tspan40" y="-223.55" x="446.28"/>
 </text>
 <text id="text42" style="text-anchor:middle" transform="scale(4.0128 .2492)" font-size="46.954px" y="-1246.22" x="308.29001" font-family="Arial"/>
 <text id="text44" style="word-spacing:0;letter-spacing:0" font-size="129.23px" line-height="125%" y="-303.56" x="1027.55" font-family="Gentium Book Basic">
  <tspan id="tspan46" y="-303.56" x="1027.55"/>
 </text>
 <text id="text48" style="text-anchor:middle" transform="scale(4.0128 .2492)" font-size="46.954px" y="-1567.26" x="453.14001" font-family="Arial"/>
 <text id="text50" style="word-spacing:0;letter-spacing:0" font-size="129.23px" line-height="125%" y="-775.96002" x="638.42999" font-family="Gentium Book Basic">
  <tspan id="tspan52" y="-775.96002" x="638.42999"/>
 </text>
 <text id="text54" style="text-anchor:middle" transform="scale(4.0128 .2492)" font-size="46.954px" y="-3462.9099" x="356.17001" font-family="Arial"/>
 <text id="text56" style="word-spacing:0;letter-spacing:0" font-size="129.23px" line-height="125%" y="-855.96002" x="1219.6899" font-family="Gentium Book Basic">
  <tspan id="tspan58" y="-855.96002" x="1219.6899"/>
 </text>
 <text id="text60" style="text-anchor:middle" transform="scale(4.0128 .2492)" font-size="46.954px" y="-3783.9399" x="501.01999" font-family="Arial"/>
 <text id="text62" style="word-spacing:0;letter-spacing:0" font-size="208.33px" line-height="125%" y="558.76001" x="-613.10999" font-family="Gentium Book Basic">
  <tspan id="tspan64" y="558.76001" x="-613.10999"/>
 </text>
 <g id="g66" style="color:#000000">
  <path id="path68" opacity=".25" d="m250.53 41c-1.709 0.01-3.42 0.034-5.125 0.063-59.34 2.251-122.7 16.316-166.47 58.844-20.11 20.18-29.28 53.05-14.03 78.63 4.743 8.646 10.657 16.282 17.438 23.06l67.63 67.63c-9.867-3.338-19.58-7.165-29.06-11.531-4.056-1.959-8.07-4.04-12.03-6.281l-51.622-51.63c1.142 22.789-2.341 46 1.813 68.53 3.941 14.89 12.13 27.349 22.625 37.844l72.938 72.938c-11.04-3.532-21.891-7.674-32.469-12.469-4.422-2.12-8.826-4.392-13.156-6.844l-51.772-51.78v54.969c0.624 20.384 10.816 37.847 24.906 51.938l97.09 97.09h306.78c14.397 0 26-11.603 26-26v-306.97l-81.93-81.943c-7.88-7.874-16.98-14.574-26.19-19.813-45.76-27.818-100.37-36.59-153.34-36.28"/>
  <path id="path70" d="m245.41 41.07c-59.34 2.251-122.71 16.324-166.48 58.852-20.11 20.18-29.26 53.03-14.02 78.6 20.13 36.7 61.43 55.35 100.04 66.53 72.77 19.908 153.32 16.433 222.28-14.947 30.33-14.209 61.01-38.2 66.844-72.88 4.6-34.476-22.18-64.01-50.19-79.938-47.24-28.716-103.92-37.13-158.48-36.21m208.47 160.22c-19.877 39.29-62.709 59.53-103.12 71.63-75.14 21.06-158.61 17.589-229.84-15.209-26.16-12.638-51.22-30.911-63.67-57.931 1.142 22.789-2.344 46.02 1.81 68.55 9.291 35.1 42.19 56.7 73.24 70.871 62.29 25.88 133.42 29.05 199.22 15.446 40.44-10.03 82.89-26.25 108.88-60.42 14.388-17.975 15.512-41.456 14.08-63.54 0.252-10.308 0.022-20.63 0.101-30.947l-0.664 1.471-0.042 0.092m-396.64 161.68c1.062 34.73 29.945 60.986 58.46 76.52 56.48 29.32 122.74 36.07 185.56 28.873 46.692-6.745 95.43-21.11 129.93-54.818 18.434-17.444 26.27-43.47 23.27-68.6 0.279-12.294 0.105-24.598 0.152-36.898-18.691 39.23-60.96 59.94-100.55 72.23-75.61 22.06-159.88 18.999-231.87-13.635-26.535-12.723-52.48-31.13-64.927-58.646v54.968" fill="#fff"/>
 </g>
</svg>

<?xml version="1.0" encoding="UTF-8" standalone="no"?>
<!-- Created with Inkscape (http://www.inkscape.org/) -->

<svg
   xmlns:dc="http://purl.org/dc/elements/1.1/"
   xmlns:cc="http://creativecommons.org/ns#"
   xmlns:rdf="http://www.w3.org/1999/02/22-rdf-syntax-ns#"
   xmlns:svg="http://www.w3.org/2000/svg"
   xmlns="http://www.w3.org/2000/svg"
   xmlns:inkscape="http://www.inkscape.org/namespaces/inkscape"
   version="1.1"
   width="100%"
   height="100%"
   viewBox="0 0 512 512"
   id="svg2">
  <metadata
     id="metadata74">
    <rdf:RDF>
      <cc:Work
         rdf:about="">
        <dc:format>image/svg+xml</dc:format>
        <dc:type
           rdf:resource="http://purl.org/dc/dcmitype/StillImage" />
      </cc:Work>
    </rdf:RDF>
  </metadata>
  <defs
     id="defs4" />
  <path
     d="M 26,0 C 11.603,0 0,11.603 0,26 v 460 c 0,14.397 11.603,26 26,26 h 460 c 14.397,0 26,-11.603 26,-26 V 26 C 512,11.603 500.397,0 486,0 H 26"
     inkscape:connector-curvature="0"
     id="path16"
     style="fill:#e02b2b" />
  <path
     d="M 26,0 C 11.603,0 0,11.603 0,26 v 460 c 0,14.397 11.603,26 26,26 H 199 C 214.383,438.55 208.774,366.4 185.88,280.94 155.377,167.1 144.51,89.67 173.85,0 H 26.01"
     inkscape:connector-curvature="0"
     id="path18"
     style="fill:#1f467c" />
  <text
     x="-161.46001"
     y="254.17999"
     id="text20"
     style="font-size:129.22999573px;line-height:125%;letter-spacing:0;word-spacing:0;font-family:Gentium Book Basic">
    <tspan
       x="-161.46001"
       y="254.17999"
       id="tspan22" />
  </text>
  <text
     x="156.84"
     y="670.83002"
     transform="scale(4.0128,0.2492)"
     id="text24"
     style="font-size:46.95399857px;text-anchor:middle;font-family:Arial" />
  <text
     x="419.81"
     y="174.17999"
     id="text26"
     style="font-size:129.22999573px;line-height:125%;letter-spacing:0;word-spacing:0;font-family:Gentium Book Basic">
    <tspan
       x="419.81"
       y="174.17999"
       id="tspan28" />
  </text>
  <text
     x="301.69"
     y="349.79999"
     transform="scale(4.0128,0.2492)"
     id="text30"
     style="font-size:46.95399857px;text-anchor:middle;font-family:Arial" />
  <text
     x="-651.77002"
     y="-7.0780001"
     id="text32"
     style="font-size:129.22999573px;line-height:125%;letter-spacing:0;word-spacing:0;font-family:Gentium Book Basic">
    <tspan
       x="-651.77002"
       y="-7.0780001"
       id="tspan34" />
  </text>
  <text
     x="34.654999"
     y="-377.54999"
     transform="scale(4.0128,0.2492)"
     id="text36"
     style="font-size:46.95399857px;text-anchor:middle;font-family:Arial" />
  <text
     x="446.28"
     y="-223.55"
     id="text38"
     style="font-size:129.22999573px;line-height:125%;letter-spacing:0;word-spacing:0;font-family:Gentium Book Basic">
    <tspan
       x="446.28"
       y="-223.55"
       id="tspan40" />
  </text>
  <text
     x="308.29001"
     y="-1246.22"
     transform="scale(4.0128,0.2492)"
     id="text42"
     style="font-size:46.95399857px;text-anchor:middle;font-family:Arial" />
  <text
     x="1027.55"
     y="-303.56"
     id="text44"
     style="font-size:129.22999573px;line-height:125%;letter-spacing:0;word-spacing:0;font-family:Gentium Book Basic">
    <tspan
       x="1027.55"
       y="-303.56"
       id="tspan46" />
  </text>
  <text
     x="453.14001"
     y="-1567.26"
     transform="scale(4.0128,0.2492)"
     id="text48"
     style="font-size:46.95399857px;text-anchor:middle;font-family:Arial" />
  <text
     x="638.42999"
     y="-775.96002"
     id="text50"
     style="font-size:129.22999573px;line-height:125%;letter-spacing:0;word-spacing:0;font-family:Gentium Book Basic">
    <tspan
       x="638.42999"
       y="-775.96002"
       id="tspan52" />
  </text>
  <text
     x="356.17001"
     y="-3462.9099"
     transform="scale(4.0128,0.2492)"
     id="text54"
     style="font-size:46.95399857px;text-anchor:middle;font-family:Arial" />
  <text
     x="1219.6899"
     y="-855.96002"
     id="text56"
     style="font-size:129.22999573px;line-height:125%;letter-spacing:0;word-spacing:0;font-family:Gentium Book Basic">
    <tspan
       x="1219.6899"
       y="-855.96002"
       id="tspan58" />
  </text>
  <text
     x="501.01999"
     y="-3783.9399"
     transform="scale(4.0128,0.2492)"
     id="text60"
     style="font-size:46.95399857px;text-anchor:middle;font-family:Arial" />
  <text
     x="-613.10999"
     y="558.76001"
     id="text62"
     style="font-size:208.33000183px;line-height:125%;letter-spacing:0;word-spacing:0;font-family:Gentium Book Basic">
    <tspan
       x="-613.10999"
       y="558.76001"
       id="tspan64" />
  </text>
  <g
     id="g66"
     style="color:#000000">
    <path
       d="m 250.53,41 c -1.709,0.01 -3.42,0.034 -5.125,0.063 -59.34,2.251 -122.7,16.316 -166.47,58.844 -20.11,20.18 -29.28,53.05 -14.03,78.63 4.743,8.646 10.657,16.282 17.438,23.06 l 67.63,67.63 c -9.867,-3.338 -19.58,-7.165 -29.06,-11.531 -4.056,-1.959 -8.07,-4.04 -12.03,-6.281 L 57.258,199.79 c 1.142,22.789 -2.341,46 1.813,68.53 3.941,14.89 12.13,27.349 22.625,37.844 l 72.938,72.938 c -11.04,-3.532 -21.891,-7.674 -32.469,-12.469 -4.422,-2.12 -8.826,-4.392 -13.156,-6.844 L 57.228,308.008 v 54.969 c 0.624,20.384 10.816,37.847 24.906,51.938 l 97.09,97.09 h 306.78 c 14.397,0 26,-11.603 26,-26 V 179.035 L 430.066,97.097 C 422.192,89.223 413.09,82.523 403.876,77.284 358.117,49.466 303.506,40.694 250.536,41.004"
       inkscape:connector-curvature="0"
       id="path68"
       style="opacity:0.25" />
    <path
       d="M 245.41,41.07 C 186.07,43.321 122.7,57.394 78.93,99.922 c -20.11,20.18 -29.26,53.03 -14.02,78.6 20.13,36.7 61.43,55.35 100.04,66.53 72.77,19.908 153.32,16.433 222.28,-14.947 30.33,-14.209 61.01,-38.2 66.844,-72.88 4.6,-34.476 -22.18,-64.01 -50.19,-79.938 -47.24,-28.716 -103.92,-37.13 -158.48,-36.21 m 208.47,160.22 c -19.877,39.29 -62.709,59.53 -103.12,71.63 -75.14,21.06 -158.61,17.589 -229.84,-15.209 -26.16,-12.638 -51.22,-30.911 -63.67,-57.931 1.142,22.789 -2.344,46.02 1.81,68.55 9.291,35.1 42.19,56.7 73.24,70.871 62.29,25.88 133.42,29.05 199.22,15.446 40.44,-10.03 82.89,-26.25 108.88,-60.42 14.388,-17.975 15.512,-41.456 14.08,-63.54 0.252,-10.308 0.022,-20.63 0.101,-30.947 l -0.664,1.471 -0.042,0.092 M 57.219,362.98 c 1.062,34.73 29.945,60.986 58.46,76.52 56.48,29.32 122.74,36.07 185.56,28.873 46.692,-6.745 95.43,-21.11 129.93,-54.818 18.434,-17.444 26.27,-43.47 23.27,-68.6 0.279,-12.294 0.105,-24.598 0.152,-36.898 -18.691,39.23 -60.96,59.94 -100.55,72.23 -75.61,22.06 -159.88,18.999 -231.87,-13.635 -26.535,-12.723 -52.48,-31.13 -64.927,-58.646 0,18.322 0,36.646 0,54.968"
       inkscape:connector-curvature="0"
       id="path70"
       style="fill:#ffffff" />
  </g>
</svg>
